X: 34305
T: Restless Boy, The
R: jig
M: 6/8
K: Gmajor
|:BGG Add|BdB BAG|BGG ADD|GAG GED|
BGG Add|BAG ABc|dge fed|1 cAF G3:|2 cAF G2D||
|:GBd ~g3|fed cAF|GBd ~g3|faf g2e|
[1faf gfe|fed cAG|~B3 BAG|BdB cAF:|
[2faf gfe|fed ^cde|faf gfe|ded dcA||
|:GBB B2d|cAA ~A3|GBB BAG|BdB cAF|
GBB B2d|cAA ABc|dge fed|cAF G2D:|

